icons/helix-light.svg

<svg width="256" height="256" viewBox="0 0 256 256" fill="none" xmlns="http://www.w3.org/2000/svg">
<g clip-path="url(#clip0_85_170)">
<path d="M196 0H60C26.8629 0 0 26.8629 0 60V196C0 229.137 26.8629 256 60 256H196C229.137 256 256 229.137 256 196V60C256 26.8629 229.137 0 196 0Z" fill="#F4F2ED"/>
<g clip-path="url(#clip1_85_170)">
<path fill-rule="evenodd" clip-rule="evenodd" d="M64.0059 28.001L185.737 98.463C188.991 100.346 190.995 103.829 190.995 107.596C190.995 114.144 190.995 124.492 190.995 131.041C190.995 132.924 190.494 134.736 189.587 136.314C189.587 136.314 92.9487 80.3783 69.2196 66.6422C65.9925 64.7744 64.0059 61.3222 64.0059 57.5866C64.0059 47.4267 64.0059 28.001 64.0059 28.001Z" fill="#706BC8"/>
<path fill-rule="evenodd" clip-rule="evenodd" d="M185.781 189.356C189.008 191.223 190.995 194.673 190.995 198.409C190.995 208.571 190.995 227.994 190.995 227.994L69.2658 157.535C66.0099 155.649 64.0056 152.168 64.0056 148.402C64.0056 141.853 64.0056 131.503 64.0056 124.957C64.0056 123.072 64.5067 121.259 65.4139 119.684C65.4139 119.684 162.052 175.619 185.781 189.356Z" fill="#55C5E4"/>
<path fill-rule="evenodd" clip-rule="evenodd" d="M75.7182 147.71C74.572 148.372 73.5793 149.334 72.8712 150.565C70.7418 154.261 71.9803 159.041 75.6293 161.216H75.628L69.2653 157.534C66.0103 155.65 64.0054 152.169 64.0054 148.401C64.0054 141.852 64.0054 131.504 64.0054 124.956C64.0054 121.187 66.0103 117.706 69.2653 115.823L179.283 52.1482L179.336 52.1172C180.46 51.4571 181.433 50.5048 182.129 49.2943C184.259 45.5968 183.021 40.8185 179.372 38.6416H179.374L185.736 42.3245C188.991 44.2084 190.996 47.6901 190.996 51.4582C190.996 58.006 190.996 68.354 190.996 74.9023C190.996 78.6711 188.991 82.1521 185.736 84.0353L179.195 87.8218L179.283 87.7643L75.7182 147.71Z" fill="#84DDEA"/>
<path fill-rule="evenodd" clip-rule="evenodd" d="M75.7182 203.85C74.572 204.511 73.5793 205.474 72.8712 206.702C70.7418 210.4 71.9803 215.178 75.6293 217.356H75.628L69.2653 213.673C66.0103 211.79 64.0054 208.307 64.0054 204.54C64.0054 197.992 64.0054 187.644 64.0054 181.096C64.0054 177.327 66.0103 173.846 69.2653 171.963L179.283 108.288L179.336 108.257C180.46 107.595 181.433 106.644 182.129 105.433C184.259 101.735 183.021 96.9574 179.372 94.7798H179.374L185.736 98.4644C188.991 100.348 190.996 103.829 190.996 107.597C190.996 114.146 190.996 124.494 190.996 131.042C190.996 134.809 188.991 138.292 185.736 140.175L179.195 143.959L179.283 143.904L75.7182 203.85Z" fill="#997BC8"/>
</g>
</g>
<defs>
<clipPath id="clip0_85_170">
<rect width="256" height="256" fill="white"/>
</clipPath>
<clipPath id="clip1_85_170">
<rect width="127" height="200" fill="white" transform="translate(64 28)"/>
</clipPath>
</defs>
</svg>

<svg xmlns="http://www.w3.org/2000/svg" width="256" height="256" fill="none"><g clip-path="url(#clip0_85_170)"><path fill="#F4F2ED" d="M196 0H60C26.863 0 0 26.863 0 60v136c0 33.137 26.863 60 60 60h136c33.137 0 60-26.863 60-60V60c0-33.137-26.863-60-60-60"/><g fill-rule="evenodd" clip-path="url(#clip1_85_170)" clip-rule="evenodd"><path fill="#706BC8" d="m64.006 28.001 121.731 70.462a10.55 10.55 0 0 1 5.258 9.133v23.445c0 1.883-.501 3.695-1.408 5.273L69.22 66.642a10.46 10.46 0 0 1-5.214-9.055z"/><path fill="#55C5E4" d="M185.781 189.356a10.46 10.46 0 0 1 5.214 9.053v29.585l-121.73-70.459a10.55 10.55 0 0 1-5.26-9.133v-23.445c0-1.885.502-3.698 1.409-5.273 0 0 96.638 55.935 120.367 69.672"/><path fill="#84DDEA" d="M75.718 147.71a7.74 7.74 0 0 0-2.847 2.855c-2.13 3.696-.89 8.476 2.758 10.651h-.001l-6.363-3.682a10.55 10.55 0 0 1-5.26-9.133v-23.445c0-3.769 2.005-7.25 5.26-9.133l110.018-63.675.053-.03a7.73 7.73 0 0 0 2.793-2.824c2.13-3.697.892-8.475-2.757-10.652h.002l6.362 3.682a10.55 10.55 0 0 1 5.26 9.134v23.444c0 3.77-2.005 7.25-5.26 9.133l-6.541 3.787.088-.058z"/><path fill="#997BC8" d="M75.718 203.85a7.75 7.75 0 0 0-2.847 2.852c-2.13 3.698-.89 8.476 2.758 10.654h-.001l-6.363-3.683a10.55 10.55 0 0 1-5.26-9.133v-23.444c0-3.769 2.005-7.25 5.26-9.133l110.018-63.675.053-.031a7.75 7.75 0 0 0 2.793-2.824c2.13-3.698.892-8.476-2.757-10.653h.002l6.362 3.684a10.55 10.55 0 0 1 5.26 9.133v23.445a10.55 10.55 0 0 1-5.26 9.133l-6.541 3.784.088-.055z"/></g></g><defs><clipPath id="clip0_85_170"><path fill="#fff" d="M0 0h256v256H0z"/></clipPath><clipPath id="clip1_85_170"><path fill="#fff" d="M64 28h127v200H64z"/></clipPath></defs></svg>
